; generated by PrusaSlicer 2.7.0+MacOS-x64 on 2023-12-17 at 18:46:08 UTC

; 

; external perimeters extrusion width = 0.52mm
; perimeters extrusion width = 0.55mm
; infill extrusion width = 0.55mm
; solid infill extrusion width = 0.55mm
; top infill extrusion width = 0.50mm
; first layer extrusion width = 0.52mm

; external perimeters extrusion width = 0.52mm
; perimeters extrusion width = 0.55mm
; infill extrusion width = 0.55mm
; solid infill extrusion width = 0.55mm
; top infill extrusion width = 0.50mm
; first layer extrusion width = 0.52mm

M201 X500 Y500 Z100 E5000 ; sets maximum accelerations, mm/sec^2
M203 X500 Y500 Z10 E60 ; sets maximum feedrates, mm / sec
M204 P500 R1000 T500 ; sets acceleration (P, T) and retract acceleration (R), mm/sec^2
M205 X8.00 Y8.00 Z0.40 E5.00 ; sets the jerk limits, mm/sec
M205 S0 T0 ; sets the minimum extruding and travel feed rate, mm/sec

; printing object Christmas_Card_Flatpack_-_Santas_Sleigh_Decoration_2020_version.stl id:5 copy 0
; stop printing object Christmas_Card_Flatpack_-_Santas_Sleigh_Decoration_2020_version.stl id:5 copy 0
; printing object Christmas_Card_Flatpack_-_Santas_Sleigh_Decoration_2020_version.stl id:6 copy 0
; stop printing object Christmas_Card_Flatpack_-_Santas_Sleigh_Decoration_2020_version.stl id:6 copy 0

;TYPE:Custom
G90 ; use absolute coordinates
M83 ; extruder relative mode
M104 S150 ; set temporary nozzle temp to prevent oozing during homing
M140 S50 ; set final bed temp
G4 S30 ; allow partial nozzle warmup
G28 ; home all axis
G29 ; mesh bed leveling
G1 Z50 F240
G1 X2.0 Y10 F3000
M104 S205 ; set final nozzle temp
M190 S50 ; wait for bed temp to stabilize
M109 S205 ; wait for nozzle temp to stabilize
G1 Z0.28 F240
G92 E0
G1 X2.0 Y140 E10 F1500 ; prime the nozzle
G1 X2.3 Y140 F5000
G92 E0
G1 X2.3 Y10 E10 F1200 ; prime the nozzle
G92 E0
G21 ; set units to millimeters
G90 ; use absolute coordinates
M83 ; use relative distances for extrusion
; Filament gcode
M107 ; disable fan
;LAYER_CHANGE
;Z:0.2
;HEIGHT:0.2
;BEFORE_LAYER_CHANGE
G92 E0
;0.2


G1 Z.2 F9000 ; move to next layer (0)
;AFTER_LAYER_CHANGE
;0.2
G1 E-4 F3600 ; retract
G1 X62.363 Y137.847 F9000 ; move to print after unknown position
G1 Z.2 ; move to print after unknown position
G1 E4 F2400 ;  ; unretract
M204 P500 ; adjust acceleration
;TYPE:Skirt/Brim
;WIDTH:0.52
G1 F1200
G1 X63.783 Y137.435 E.05865 ; skirt
G1 X67.334 Y137.203 E.14117 ; skirt
G1 X168.334 Y137.262 E4.0066 ; skirt
G1 X169.353 Y137.395 E.04077 ; skirt
G1 X170.267 Y137.765 E.03912 ; skirt
G1 X173.659 Y140.224 E.1662 ; skirt
G1 X174.72 Y141.496 E.06571 ; skirt
G1 X175.073 Y143.024 E.06221 ; skirt
G1 X175.012 Y162.672 E.77943 ; skirt
G1 X174.606 Y164.278 E.06571 ; skirt
G1 X173.569 Y165.468 E.06262 ; skirt
G1 X170.39 Y167.755 E.15535 ; skirt
G1 X169.779 Y168.079 E.02743 ; skirt
G1 X169.118 Y168.292 E.02755 ; skirt
G1 X168.23 Y168.392 E.03545 ; skirt
G1 X67.033 Y168.328 E4.01442 ; skirt
G1 X63.566 Y168.03 E.13804 ; skirt
G1 X62.163 Y167.596 E.05826 ; skirt
G1 X58.533 Y165.554 E.16522 ; skirt
G1 X57.325 Y164.422 E.06567 ; skirt
G1 X56.761 Y162.524 E.07855 ; skirt
G1 X56.857 Y142.865 E.77987 ; skirt
G1 X57.268 Y141.26 E.06572 ; skirt
G1 X58.679 Y139.842 E.07935 ; skirt
G1 X62.297 Y137.883 E.16321 ; skirt
; printing object Christmas_Card_Flatpack_-_Santas_Sleigh_Decoration_2020_version.stl id:5 copy 0
G1 E-4 F3600 ; retract
G1 X62.297 Y137.883 F9000 ; move to first perimeter point
G1 X66.413 Y162.265 ; move to first perimeter point
G1 E4 F2400 ;  ; unretract
;TYPE:Perimeter
;WIDTH:0.519999
G1 F1200
G1 X66.39 Y162.37 E.00426 ; perimeter
G1 X66.421 Y163.139 E.03053 ; perimeter
G1 X66.546 Y163.777 E.02579 ; perimeter
G1 X65.336 Y163.642 E.0483 ; perimeter
G1 X64.81 Y163.637 E.02087 ; perimeter
G1 X64.818 Y162.387 E.04959 ; perimeter
G1 X64.749 Y162.02 E.01481 ; perimeter
G1 X64.621 Y161.833 E.00899 ; perimeter
G1 X64.346 Y161.654 E.01302 ; perimeter
G1 X64.108 Y161.612 E.00959 ; perimeter
G1 X61.175 Y161.593 E.11635 ; perimeter
G1 X61.189 Y155.812 E.22933 ; perimeter
;WIDTH:0.553467
G1 X61.208 Y155.513 E.01272 ; perimeter
;WIDTH:0.586934
G1 X61.226 Y154.652 E.03896 ; perimeter
;WIDTH:0.578991
G1 X61.214 Y154.218 E.01935 ; perimeter
;WIDTH:0.549495
G1 X61.202 Y153.784 E.01829 ; perimeter
;WIDTH:0.519999
G1 X61.205 Y153.249 E.02122 ; perimeter
G1 X61.175 Y153.077 E.00693 ; perimeter
G1 X61.209 Y152.695 E.01521 ; perimeter
G1 X61.216 Y151.543 E.0457 ; perimeter
;WIDTH:0.541714
G1 X61.225 Y150.085 E.06047 ; perimeter
;WIDTH:0.519999
G1 X61.265 Y143.843 E.24762 ; perimeter
G1 X64.045 Y143.86 E.11028 ; perimeter
G1 X64.41 Y143.837 E.01451 ; perimeter
G1 X64.636 Y143.732 E.00989 ; perimeter
G1 X64.871 Y143.455 E.01441 ; perimeter
G1 X64.941 Y143.15 E.01241 ; perimeter
G1 X64.95 Y141.845 E.05177 ; perimeter
G1 X65.952 Y141.808 E.03978 ; perimeter
G1 X66.66 Y141.732 E.02825 ; perimeter
G1 X66.589 Y141.989 E.01058 ; perimeter
G1 X66.524 Y142.499 E.02039 ; perimeter
G1 X66.51 Y143.148 E.02575 ; perimeter
G1 X66.576 Y143.465 E.01284 ; perimeter
G1 X66.701 Y143.652 E.00892 ; perimeter
G1 X66.885 Y143.794 E.00922 ; perimeter
G1 X67.22 Y143.88 E.01372 ; perimeter
G1 X69.659 Y143.896 E.09676 ; perimeter
G1 X69.659 Y146.112 E.08791 ; perimeter
G1 X69.659 Y151.848 E.22754 ; perimeter
G1 X69.426 Y151.68 E.0114 ; perimeter
G1 X68.823 Y151.319 E.02788 ; perimeter
G1 X68.067 Y150.919 E.03393 ; perimeter
G1 X67.806 Y149.4 E.06114 ; perimeter
G1 X67.689 Y149.019 E.01581 ; perimeter
G1 X67.548 Y148.772 E.01128 ; perimeter
G1 X67.135 Y148.362 E.02309 ; perimeter
G1 X66.943 Y148.289 E.00815 ; perimeter
G1 X66.708 Y148.277 E.00933 ; perimeter
G1 X66.404 Y148.383 E.01277 ; perimeter
G1 X65.776 Y148.801 E.02993 ; perimeter
G1 X65.123 Y149.33 E.03334 ; perimeter
G1 X64.582 Y149.803 E.02851 ; perimeter
G1 X63.653 Y149.651 E.03734 ; perimeter
G1 X63.102 Y149.611 E.02192 ; perimeter
G1 X62.624 Y149.658 E.01905 ; perimeter
G1 X62.344 Y149.755 E.01176 ; perimeter
G1 X62.171 Y149.859 E.00801 ; perimeter
G1 X61.874 Y150.21 E.01824 ; perimeter
;WIDTH:0.541714
G1 X61.731 Y150.676 E.02022 ; perimeter
G1 X61.785 Y150.948 E.0115 ; perimeter
;WIDTH:0.536796
G1 X62.006 Y151.471 E.02332 ; perimeter
;WIDTH:0.519999
G1 X62.63 Y152.657 E.05316 ; perimeter
G1 X62.021 Y153.943 E.05645 ; perimeter
;WIDTH:0.549495
G1 X61.891 Y154.3 E.016 ; perimeter
;WIDTH:0.578991
G1 X61.762 Y154.657 E.01692 ; perimeter
;WIDTH:0.586934
G1 X61.766 Y155.17 E.02321 ; perimeter
G1 X61.868 Y155.345 E.00916 ; perimeter
;WIDTH:0.553467
G1 X61.969 Y155.519 E.00854 ; perimeter
;WIDTH:0.519999
G1 X62.312 Y155.735 E.01608 ; perimeter
G1 X62.653 Y155.83 E.01404 ; perimeter
G1 X62.956 Y155.848 E.01204 ; perimeter
G1 X64.635 Y155.586 E.06741 ; perimeter
G1 X65.818 Y156.612 E.06212 ; perimeter
G1 X66.329 Y156.955 E.02441 ; perimeter
G1 X66.598 Y157.036 E.01114 ; perimeter
G1 X66.813 Y157.024 E.00854 ; perimeter
G1 X67.332 Y156.759 E.02312 ; perimeter
G1 X67.607 Y156.46 E.01612 ; perimeter
G1 X67.753 Y156.162 E.01316 ; perimeter
G1 X67.917 Y155.576 E.02414 ; perimeter
G1 X68.093 Y154.592 E.03965 ; perimeter
G1 X68.244 Y154.423 E.00899 ; perimeter
G1 X69.46 Y153.675 E.05663 ; perimeter
G1 X69.658 Y153.524 E.00988 ; perimeter
G1 X69.604 Y161.648 E.32228 ; perimeter
G1 X66.991 Y161.644 E.10366 ; perimeter
G1 X66.704 Y161.757 E.01224 ; perimeter
G1 X66.464 Y162.033 E.01451 ; perimeter
G1 X66.429 Y162.192 E.00646 ; perimeter
G1 X66.867 Y162.357 F9000 ; move to first perimeter point
;TYPE:External perimeter
G1 F1200
G1 X66.885 Y163.008 E.02583 ; perimeter
G1 X67.09 Y164 E.04018 ; perimeter
G1 X67.171 Y164.076 E.00441 ; perimeter
G1 X67.173 Y164.132 E.00222 ; perimeter
G1 X67.257 Y164.262 E.00614 ; perimeter
G1 X67.251 Y164.397 E.00536 ; perimeter
G1 X67.173 Y164.43 E.00336 ; perimeter
G1 X66.683 Y164.296 E.02015 ; perimeter
G1 X65.864 Y164.172 E.03286 ; perimeter
G1 X65.331 Y164.119 E.02125 ; perimeter
G1 X64.33 Y164.11 E.03971 ; perimeter
G1 X64.342 Y162.332 E.07053 ; perimeter
G1 X64.276 Y162.162 E.00723 ; perimeter
G1 X64.105 Y162.089 E.00738 ; perimeter
G1 X60.698 Y162.067 E.13516 ; perimeter
G1 X60.698 Y157.96 E.16292 ; perimeter
G1 X60.725 Y153.703 E.16888 ; perimeter
G1 X60.698 Y152.975 E.0289 ; perimeter
G1 X60.732 Y152.692 E.01131 ; perimeter
G1 X60.791 Y143.363 E.37008 ; perimeter
G1 X64.246 Y143.384 E.13706 ; perimeter
G1 X64.398 Y143.31 E.00671 ; perimeter
G1 X64.464 Y143.147 E.00698 ; perimeter
G1 X64.476 Y141.367 E.07061 ; perimeter
G1 X65.48 Y141.369 E.03983 ; perimeter
G1 X66.344 Y141.297 E.03439 ; perimeter
;WIDTH:0.543295
G1 X66.869 Y141.209 E.02215 ; perimeter
;WIDTH:0.58796
G1 X67 Y141.213 E.00594 ; perimeter
;WIDTH:0.632625
G1 X67.132 Y141.218 E.00648 ; perimeter
;WIDTH:0.67729
G1 X67.264 Y141.223 E.00697 ; perimeter
G1 X67.253 Y141.319 E.0051 ; perimeter
;WIDTH:0.63703
G1 X67.241 Y141.414 E.00473 ; perimeter
;WIDTH:0.59677
G1 X67.23 Y141.51 E.00445 ; perimeter
;WIDTH:0.55651
G1 X67.071 Y142.013 E.02253 ; perimeter
;WIDTH:0.519999
G1 X67.001 Y142.51 E.01991 ; perimeter
G1 X66.987 Y143.159 E.02575 ; perimeter
G1 X67.05 Y143.327 E.00712 ; perimeter
G1 X67.223 Y143.403 E.0075 ; perimeter
G1 X70.136 Y143.422 E.11556 ; perimeter
G1 X70.136 Y146.112 E.10671 ; perimeter
G1 X70.137 Y152.158 E.23984 ; perimeter
;WIDTH:0.517687
G1 X70.145 Y152.872 E.02819 ; perimeter
;WIDTH:0.519999
G1 X70.078 Y162.127 E.36715 ; perimeter
G1 X67.106 Y162.112 E.1179 ; perimeter
G1 X66.935 Y162.183 E.00734 ; perimeter
G1 X66.894 Y162.287 E.00443 ; perimeter
G1 X66.882 Y162.787 F9000 ; move inwards before travel
G1 E-4 F3600 ; retract
G1 X69.705 Y152.647 F9000 ; move to first perimeter point
G1 E4 F2400 ;  ; unretract
G1 F1200
G1 X69.498 Y153.026 E.01713 ; perimeter
G1 X69.21 Y153.269 E.01495 ; perimeter
G1 X67.964 Y154.036 E.05804 ; perimeter
G1 X67.713 Y154.247 E.01301 ; perimeter
G1 X67.575 Y154.78 E.02184 ; perimeter
G1 X67.448 Y155.49 E.02861 ; perimeter
G1 X67.325 Y155.952 E.01897 ; perimeter
G1 X67.179 Y156.25 E.01316 ; perimeter
G1 X67.087 Y156.35 E.00539 ; perimeter
G1 X66.702 Y156.559 E.01738 ; perimeter
G1 X66.532 Y156.521 E.00691 ; perimeter
G1 X66.086 Y156.218 E.02139 ; perimeter
G1 X64.781 Y155.08 E.06869 ; perimeter
G1 X62.882 Y155.377 E.07625 ; perimeter
G1 X62.441 Y155.275 E.01796 ; perimeter
G1 X62.326 Y155.203 E.00538 ; perimeter
G1 X62.266 Y155.044 E.00674 ; perimeter
G1 X62.285 Y154.573 E.0187 ; perimeter
G1 X62.471 Y154.103 E.02005 ; perimeter
G1 X63.164 Y152.647 E.06397 ; perimeter
G1 X62.428 Y151.249 E.06267 ; perimeter
G1 X62.236 Y150.769 E.02051 ; perimeter
G1 X62.236 Y150.594 E.00694 ; perimeter
G1 X62.318 Y150.385 E.00891 ; perimeter
G1 X62.417 Y150.268 E.00608 ; perimeter
G1 X62.683 Y150.131 E.01187 ; perimeter
G1 X63.07 Y150.087 E.01545 ; perimeter
G1 X63.576 Y150.122 E.02012 ; perimeter
G1 X64.727 Y150.31 E.04626 ; perimeter
G1 X65.437 Y149.689 E.03742 ; perimeter
G1 X66.076 Y149.172 E.03261 ; perimeter
G1 X66.707 Y148.763 E.02983 ; perimeter
G1 X66.839 Y148.755 E.00525 ; perimeter
G1 X66.967 Y148.831 E.00591 ; perimeter
G1 X67.235 Y149.168 E.01708 ; perimeter
G1 X67.336 Y149.481 E.01305 ; perimeter
G1 X67.614 Y151.102 E.06524 ; perimeter
G1 X67.652 Y151.239 E.00564 ; perimeter
G1 X68.6 Y151.741 E.04255 ; perimeter
G1 X69.181 Y152.089 E.02687 ; perimeter
G1 X69.625 Y152.417 E.0219 ; perimeter
;WIDTH:0.517687
G1 X69.681 Y152.576 E.00665 ; perimeter
G1 X69.466 Y153.028 F9000 ; move inwards before travel
G1 X69.497 Y154.789 ; move to first infill point
;TYPE:Solid infill
;WIDTH:0.531948
G1 F1200
G1 X69.064 Y154.356 E.0249 ; infill
G1 X68.639 Y154.623 E.02041 ; infill
G1 X69.279 Y155.263 E.0368 ; infill
G1 X69.275 Y155.95 E.02794 ; infill
G1 X68.383 Y155.058 E.0513 ; infill
G1 X68.278 Y155.645 E.02425 ; infill
G1 X69.27 Y156.637 E.05705 ; infill
G1 X69.266 Y157.324 E.02794 ; infill
G1 X68.13 Y156.188 E.06533 ; infill
G1 X67.909 Y156.659 E.02116 ; infill
G1 X69.261 Y158.011 E.07775 ; infill
G1 X69.256 Y158.698 E.02794 ; infill
G1 X67.578 Y157.02 E.09649 ; infill
G1 X67.537 Y157.065 E.00248 ; infill
G1 X67.15 Y157.283 E.01806 ; infill
G1 X69.252 Y159.385 E.12088 ; infill
G1 X69.247 Y160.072 E.02794 ; infill
G1 X66.569 Y157.394 E.154 ; infill
G1 X66.327 Y157.353 E.00998 ; infill
G1 X66.181 Y157.292 E.00643 ; infill
G1 X65.606 Y156.912 E.02803 ; infill
G1 X64.523 Y155.975 E.05823 ; infill
G1 X64.468 Y155.984 E.00227 ; infill
G1 X69.242 Y160.759 E.27456 ; infill
G1 X69.239 Y161.278 E.0211 ; infill
G1 X69.069 Y161.277 E.00691 ; infill
G1 X63.869 Y156.077 E.29903 ; infill
G1 X63.271 Y156.171 E.02461 ; infill
G1 X68.374 Y161.274 E.29345 ; infill
G1 X67.679 Y161.27 E.02826 ; infill
G1 X62.598 Y156.189 E.29219 ; infill
G1 X62.195 Y156.083 E.01694 ; infill
G1 X61.697 Y155.771 E.0239 ; infill
G1 X61.583 Y155.592 E.00863 ; infill
G1 X61.556 Y155.839 E.0101 ; infill
G1 X66.997 Y161.28 E.31289 ; infill
G1 X66.847 Y161.297 E.00614 ; infill
G1 X66.619 Y161.382 E.00989 ; infill
G1 X66.487 Y161.462 E.00628 ; infill
G1 X61.554 Y156.529 E.28368 ; infill
G1 X61.553 Y157.219 E.02806 ; infill
G1 X66.162 Y161.828 E.26504 ; infill
G1 X66.131 Y161.872 E.00219 ; infill
G1 X66.023 Y162.381 E.02116 ; infill
G1 X61.551 Y157.909 E.25717 ; infill
G1 X61.549 Y158.598 E.02802 ; infill
G1 X64.204 Y161.253 E.15268 ; infill
G1 X64.437 Y161.296 E.00963 ; infill
G1 X64.612 Y161.37 E.00773 ; infill
G1 X64.887 Y161.578 E.01402 ; infill
G1 X65.085 Y161.865 E.01418 ; infill
G1 X65.162 Y162.211 E.01441 ; infill
G1 X66.051 Y163.1 E.05112 ; infill
G1 X66.092 Y163.347 E.01018 ; infill
G1 X65.551 Y163.292 E.02211 ; infill
G1 X64.969 Y162.71 E.03347 ; infill
G1 X63.717 Y161.457 F9000 ; move to first infill point
G1 F1200
G1 X61.548 Y159.288 E.12473 ; infill
G1 X61.546 Y159.978 E.02806 ; infill
G1 X62.804 Y161.236 E.07234 ; infill
G1 X62.108 Y161.232 E.0283 ; infill
G1 X61.33 Y160.454 E.04474 ; infill
G1 E-4 F3600 ; retract
G1 X62.372 Y152.846 F9000 ; move to first infill point
G1 E4 F2400 ;  ; unretract
;WIDTH:0.521062
G1 F1200
G1 X61.58 Y152.055 E.0445 ; infill
G1 X61.574 Y152.724 E.0266 ; infill
G1 X61.993 Y153.143 E.02356 ; infill
G1 X61.775 Y153.601 E.02017 ; infill
G1 X61.347 Y153.173 E.02406 ; infill
G1 E-4 F3600 ; retract
G1 X61.347 Y153.173 F9000 ; move to first infill point
G1 X68.49 Y144.041 ; move to first infill point
G1 E4 F2400 ;  ; unretract
;WIDTH:0.541432
G1 F1200
G1 X69.292 Y144.843 E.04701 ; infill
G1 X69.292 Y145.548 E.02922 ; infill
G1 X67.78 Y144.036 E.08864 ; infill
G1 X66.374 Y142.631 F9000 ; move to first infill point
G1 F1200
G1 X65.923 Y142.179 E.02647 ; infill
G1 X65.314 Y142.213 E.02528 ; infill
G1 X65.314 Y142.275 E.00257 ; infill
G1 X66.148 Y143.11 E.04892 ; infill
G1 X66.145 Y143.257 E.00609 ; infill
G1 X66.24 Y143.619 E.01551 ; infill
G1 X66.431 Y143.903 E.01419 ; infill
G1 X66.708 Y144.117 E.01451 ; infill
G1 X66.946 Y144.212 E.01062 ; infill
G1 X67.286 Y144.248 E.01417 ; infill
G1 X69.292 Y146.253 E.11756 ; infill
G1 X69.292 Y146.958 E.02922 ; infill
G1 X65.307 Y142.973 E.23361 ; infill
G1 X65.304 Y143.253 E.01161 ; infill
G1 X65.213 Y143.584 E.01423 ; infill
G1 X69.292 Y147.663 E.23912 ; infill
G1 X69.292 Y148.368 E.02922 ; infill
G1 X64.906 Y143.983 E.25708 ; infill
G1 X64.844 Y144.036 E.00338 ; infill
G1 X64.571 Y144.174 E.01268 ; infill
G1 X64.417 Y144.199 E.00647 ; infill
G1 X69.292 Y149.073 E.28575 ; infill
G1 X69.292 Y149.778 E.02922 ; infill
G1 X63.74 Y144.226 E.32546 ; infill
G1 X63.03 Y144.221 E.02943 ; infill
G1 X66.72 Y147.911 E.21631 ; infill
G1 X66.946 Y147.915 E.00937 ; infill
G1 X67.314 Y148.039 E.0161 ; infill
G1 X67.596 Y148.267 E.01503 ; infill
G1 X67.833 Y148.54 E.01499 ; infill
G1 X68.034 Y148.893 E.01684 ; infill
G1 X68.172 Y149.364 E.02034 ; infill
G1 X69.292 Y150.483 E.06563 ; infill
G1 X69.292 Y151.171 E.02852 ; infill
G1 X68.055 Y149.952 E.07199 ; infill
G1 E-4 F3600 ; retract
G1 X68.055 Y149.952 F9000 ; move to first infill point
G1 X66.347 Y148.243 ; move to first infill point
G1 E4 F2400 ;  ; unretract
G1 F1200
G1 X62.32 Y144.217 E.23604 ; infill
G1 X61.63 Y144.212 E.0286 ; infill
G1 X61.63 Y144.232 E.00083 ; infill
G1 X65.76 Y148.361 E.24208 ; infill
