; generated by PrusaSlicer 2.7.0+MacOS-x64 on 2023-12-19 at 05:37:28 UTC

; 

; external perimeters extrusion width = 0.52mm
; perimeters extrusion width = 0.55mm
; infill extrusion width = 0.55mm
; solid infill extrusion width = 0.55mm
; top infill extrusion width = 0.50mm
; first layer extrusion width = 0.52mm

M201 X500 Y500 Z100 E5000 ; sets maximum accelerations, mm/sec^2
M203 X500 Y500 Z10 E60 ; sets maximum feedrates, mm / sec
M204 P500 R1000 T500 ; sets acceleration (P, T) and retract acceleration (R), mm/sec^2
M205 X8.00 Y8.00 Z0.40 E5.00 ; sets the jerk limits, mm/sec
M205 S0 T0 ; sets the minimum extruding and travel feed rate, mm/sec

; printing object Christmas_Card_Flatpack_-_Santas_Sleigh_Decoration_2020_version.stl id:7 copy 0
; stop printing object Christmas_Card_Flatpack_-_Santas_Sleigh_Decoration_2020_version.stl id:7 copy 0

;TYPE:Custom
G90 ; use absolute coordinates
M83 ; extruder relative mode
M104 S150 ; set temporary nozzle temp to prevent oozing during homing
M140 S60 ; set final bed temp
G4 S30 ; allow partial nozzle warmup
G28 ; home all axis
G29 ; mesh bed leveling
G1 Z50 F240
G1 X2.0 Y10 F3000
M104 S215 ; set final nozzle temp
M190 S60 ; wait for bed temp to stabilize
M109 S215 ; wait for nozzle temp to stabilize
G1 Z0.28 F240
G92 E0
G1 X2.0 Y140 E10 F1500 ; prime the nozzle
G1 X2.3 Y140 F5000
G92 E0
G1 X2.3 Y10 E10 F1200 ; prime the nozzle
G92 E0
G21 ; set units to millimeters
G90 ; use absolute coordinates
M83 ; use relative distances for extrusion
M900 K0.05 ; Filament gcode LA 1.5
M900 K200 ; Filament gcode LA 1.0
M107 ; disable fan
;LAYER_CHANGE
;Z:0.2
;HEIGHT:0.2
;BEFORE_LAYER_CHANGE
G92 E0
;0.2


G1 Z.2 F9000 ; move to next layer (0)
;AFTER_LAYER_CHANGE
;0.2
G1 E-4 F3600 ; retract
G1 X65.388 Y48.171 F9000 ; move to print after unknown position
G1 Z.2 ; move to print after unknown position
G1 E4 F2400 ;  ; unretract
M204 P500 ; adjust acceleration
;TYPE:Skirt/Brim
;WIDTH:0.52
G1 F1200
G1 X65.923 Y47.443 E.03584 ; skirt
G1 X67.159 Y46.223 E.06889 ; skirt
G1 X68.244 Y45.408 E.05383 ; skirt
G1 X69.841 Y44.836 E.06729 ; skirt
G1 X72.013 Y44.678 E.08639 ; skirt
G1 X74.789 Y44.606 E.11016 ; skirt
G1 X94.089 Y44.524 E.76563 ; skirt
G1 X141.008 Y44.585 E1.86125 ; skirt
G1 X154.537 Y44.664 E.5367 ; skirt
G1 X160.211 Y44.824 E.22517 ; skirt
G1 X162.048 Y45.091 E.07364 ; skirt
G1 X162.908 Y45.415 E.03646 ; skirt
G1 X163.707 Y45.851 E.03611 ; skirt
G1 X164.83 Y46.837 E.05928 ; skirt
G1 X165.452 Y47.867 E.04773 ; skirt
G1 X165.81 Y48.955 E.04544 ; skirt
G1 X166.141 Y51.493 E.10153 ; skirt
G1 X166.322 Y55.978 E.17806 ; skirt
G1 X166.423 Y63.745 E.30814 ; skirt
G1 X166.477 Y180.857 E4.64576 ; skirt
G1 X166.214 Y182.185 E.0537 ; skirt
G1 X165.923 Y182.889 E.03022 ; skirt
G1 X165.167 Y184.02 E.05397 ; skirt
G1 X163.915 Y185.272 E.07024 ; skirt
G1 X162.499 Y186.13 E.06568 ; skirt
G1 X161.467 Y186.29 E.04143 ; skirt
G1 X80.3 Y186.465 E3.21985 ; skirt
G1 X70.609 Y186.32 E.38448 ; skirt
G1 X69.588 Y186.216 E.04071 ; skirt
G1 X68.387 Y185.856 E.04974 ; skirt
G1 X67.507 Y185.35 E.04027 ; skirt
G1 X66.749 Y184.747 E.03842 ; skirt
G1 X66.037 Y183.995 E.04108 ; skirt
G1 X65.226 Y182.685 E.06112 ; skirt
G1 X64.805 Y181.189 E.06165 ; skirt
G1 X64.639 Y179.286 E.07578 ; skirt
G1 X64.523 Y168.012 E.44726 ; skirt
G1 X64.611 Y119.675 E1.9175 ; skirt
G1 X64.907 Y49.883 E2.76863 ; skirt
G1 X65.309 Y48.277 E.06567 ; skirt
G1 X65.343 Y48.231 E.00227 ; skirt
; printing object Christmas_Card_Flatpack_-_Santas_Sleigh_Decoration_2020_version.stl id:7 copy 0
G1 E-4 F3600 ; retract
G1 X107.546 Y148.556 F9000 ; move to first perimeter point
G1 E4 F2400 ;  ; unretract
;TYPE:Perimeter
;WIDTH:0.519999
G1 F1200
G1 X107.614 Y149.988 E.05687 ; perimeter
G1 X107.662 Y151.676 E.06699 ; perimeter
G1 X107.731 Y152.202 E.02104 ; perimeter
G1 X107.854 Y152.692 E.02004 ; perimeter
G1 X108.026 Y153.009 E.01431 ; perimeter
G1 X107.912 Y153.194 E.00862 ; perimeter
G1 X107.811 Y153.619 E.01733 ; perimeter
G1 X107.742 Y154.264 E.02573 ; perimeter
G1 X107.72 Y154.846 E.0231 ; perimeter
G1 X107.803 Y157.553 E.10744 ; perimeter
G1 X107.94 Y159.068 E.06034 ; perimeter
G1 X108.191 Y160.388 E.0533 ; perimeter
G1 X108.587 Y161.626 E.05156 ; perimeter
G1 X109.148 Y162.909 E.05555 ; perimeter
G1 X109.9 Y164.378 E.06547 ; perimeter
G1 X110.903 Y166.234 E.08369 ; perimeter
G1 X111.746 Y167.858 E.07259 ; perimeter
G1 X110.951 Y169.436 E.07009 ; perimeter
;WIDTH:0.566311
G1 X110.894 Y169.495 E.00357 ; perimeter
;WIDTH:0.612622
G1 X110.837 Y169.554 E.00389 ; perimeter
;WIDTH:0.658934
G1 X110.781 Y169.613 E.00417 ; perimeter
;WIDTH:0.705246
G1 X110.724 Y169.673 E.00456 ; perimeter
;WIDTH:0.751557
G1 X110.668 Y169.732 E.00479 ; perimeter
;WIDTH:0.797869
G1 X110.611 Y169.791 E.00515 ; perimeter
;WIDTH:0.84418
G1 X110.555 Y169.85 E.00542 ; perimeter
G1 X110.556 Y169.754 E.0064 ; perimeter
;WIDTH:0.797869
G1 X110.558 Y169.657 E.00609 ; perimeter
;WIDTH:0.751557
G1 X110.559 Y169.561 E.00566 ; perimeter
;WIDTH:0.705246
G1 X110.56 Y169.465 E.00529 ; perimeter
;WIDTH:0.658934
G1 X110.562 Y169.368 E.00497 ; perimeter
;WIDTH:0.612622
G1 X110.563 Y169.272 E.00455 ; perimeter
;WIDTH:0.566311
G1 X110.565 Y169.176 E.00418 ; perimeter
;WIDTH:0.519999
G1 X110.612 Y168.514 E.02633 ; perimeter
G1 X110.518 Y168.087 E.01734 ; perimeter
G1 X110.29 Y167.608 E.02104 ; perimeter
G1 X109.686 Y166.747 E.04172 ; perimeter
G1 X108.785 Y165.74 E.0536 ; perimeter
G1 X106.613 Y163.639 E.11988 ; perimeter
G1 X105.744 Y162.745 E.04946 ; perimeter
G1 X105.04 Y161.955 E.04198 ; perimeter
G1 X104.068 Y160.727 E.06213 ; perimeter
G1 X103.627 Y160.359 E.02278 ; perimeter
G1 X103.378 Y160.228 E.01116 ; perimeter
G1 X102.801 Y160.079 E.02364 ; perimeter
G1 X102.208 Y160.06 E.02354 ; perimeter
G1 X101.557 Y160.134 E.02599 ; perimeter
G1 X100.811 Y160.299 E.03031 ; perimeter
G1 X99.848 Y160.603 E.04006 ; perimeter
G1 X99.628 Y160.718 E.00985 ; perimeter
G1 X99.512 Y160.953 E.0104 ; perimeter
G1 X99.319 Y160.777 E.01036 ; perimeter
G1 X99.172 Y160.751 E.00592 ; perimeter
G1 X97.819 Y160.639 E.05386 ; perimeter
G1 X97.326 Y160.54 E.01995 ; perimeter
G1 X96.765 Y160.377 E.02317 ; perimeter
G1 X95.236 Y159.836 E.06434 ; perimeter
G1 X94.531 Y159.629 E.02915 ; perimeter
G1 X93.912 Y159.511 E.025 ; perimeter
G1 X93.331 Y159.48 E.02308 ; perimeter
G1 X92.741 Y159.548 E.02356 ; perimeter
G1 X92.172 Y159.756 E.02403 ; perimeter
G1 X91.686 Y160.111 E.02387 ; perimeter
G1 X91.322 Y160.566 E.02311 ; perimeter
G1 X91.059 Y161.087 E.02315 ; perimeter
G1 X90.865 Y161.675 E.02456 ; perimeter
G1 X90.712 Y162.358 E.02777 ; perimeter
G1 X90.277 Y165.348 E.11986 ; perimeter
G1 X90.001 Y167.017 E.06711 ; perimeter
G1 X89.691 Y168.513 E.06061 ; perimeter
G1 X88.82 Y172.164 E.1489 ; perimeter
G1 X88.369 Y174.3 E.0866 ; perimeter
G1 X88.386 Y172.684 E.06411 ; perimeter
G1 X88.328 Y170.604 E.08254 ; perimeter
G1 X88.202 Y168.266 E.09288 ; perimeter
G1 X87.936 Y164.659 E.14348 ; perimeter
G1 X87.679 Y162.34 E.09256 ; perimeter
G1 X87.515 Y161.427 E.0368 ; perimeter
G1 X87.325 Y160.711 E.02939 ; perimeter
G1 X87.089 Y160.11 E.02561 ; perimeter
G1 X86.85 Y159.667 E.01997 ; perimeter
G1 X86.189 Y158.859 E.04141 ; perimeter
G1 X84.706 Y157.356 E.08376 ; perimeter
G1 X84.31 Y156.921 E.02334 ; perimeter
G1 X83.992 Y156.409 E.02391 ; perimeter
G1 X83.806 Y155.793 E.02553 ; perimeter
G1 X83.743 Y155.259 E.02133 ; perimeter
G1 X83.626 Y153.854 E.05593 ; perimeter
G1 X83.489 Y153.297 E.02275 ; perimeter
G1 X83.315 Y152.981 E.01431 ; perimeter
G1 X83.422 Y152.785 E.00886 ; perimeter
G1 X83.466 Y152.625 E.00658 ; perimeter
G1 X83.56 Y152.054 E.02296 ; perimeter
G1 X83.562 Y150.788 E.05022 ; perimeter
G1 X83.429 Y149.433 E.05401 ; perimeter
G1 X83.313 Y148.872 E.02273 ; perimeter
G1 X83.149 Y148.398 E.0199 ; perimeter
G1 X82.918 Y147.972 E.01922 ; perimeter
G1 X82.628 Y147.606 E.01852 ; perimeter
G1 X82.245 Y147.275 E.02008 ; perimeter
G1 X81.743 Y147.015 E.02243 ; perimeter
G1 X81.092 Y146.818 E.02698 ; perimeter
G1 X80.638 Y146.726 E.01838 ; perimeter
G1 X79.752 Y146.612 E.03544 ; perimeter
G1 X77.403 Y146.538 E.09323 ; perimeter
G1 X76.54 Y146.448 E.03442 ; perimeter
G1 X75.783 Y146.291 E.03067 ; perimeter
G1 X75.118 Y146.079 E.02769 ; perimeter
G1 X74.794 Y145.927 E.0142 ; perimeter
G1 X74.37 Y145.645 E.0202 ; perimeter
G1 X74.199 Y145.456 E.01011 ; perimeter
G1 X74.308 Y145.355 E.00589 ; perimeter
G1 X74.747 Y145.035 E.02155 ; perimeter
G1 X75.304 Y144.717 E.02544 ; perimeter
G1 X76.029 Y144.357 E.03211 ; perimeter
G1 X77.062 Y143.906 E.04471 ; perimeter
G1 X77.536 Y143.674 E.02093 ; perimeter
G1 X78.03 Y143.371 E.02299 ; perimeter
G1 X78.066 Y143.636 E.01061 ; perimeter
G1 X78.207 Y143.837 E.00974 ; perimeter
G1 X78.508 Y144.125 E.01653 ; perimeter
G1 X78.967 Y144.365 E.02055 ; perimeter
G1 X79.475 Y144.48 E.02066 ; perimeter
G1 X79.931 Y144.481 E.01809 ; perimeter
G1 X80.476 Y144.443 E.02167 ; perimeter
G1 X81.119 Y144.263 E.02649 ; perimeter
G1 X81.547 Y144.042 E.01911 ; perimeter
G1 X81.906 Y143.708 E.01945 ; perimeter
G1 X82.061 Y143.458 E.01167 ; perimeter
G1 X82.2 Y142.972 E.02005 ; perimeter
;WIDTH:0.527492
G1 X82.115 Y142.407 E.02302 ; perimeter
;WIDTH:0.566133
G1 X82.068 Y142.292 E.0054 ; perimeter
;WIDTH:0.604773
G1 X82.022 Y142.177 E.00579 ; perimeter
;WIDTH:0.643413
G1 X81.976 Y142.062 E.00618 ; perimeter
;WIDTH:0.677207
G1 X81.804 Y141.844 E.01465 ; perimeter
G1 X81.492 Y141.63 E.01995 ; perimeter
G1 X81.775 Y141.372 E.0202 ; perimeter
G1 X82.122 Y140.955 E.02861 ; perimeter
G1 X82.171 Y141.207 E.01354 ; perimeter
G1 X82.288 Y141.461 E.01475 ; perimeter
G1 X82.457 Y141.674 E.01434 ; perimeter
;WIDTH:0.643413
G1 X82.626 Y141.801 E.01056 ; perimeter
;WIDTH:0.602275
G1 X82.794 Y141.928 E.0098 ; perimeter
;WIDTH:0.561137
G1 X82.962 Y142.054 E.00905 ; perimeter
;WIDTH:0.519999
G1 X83.372 Y142.232 E.01773 ; perimeter
G1 X83.96 Y142.255 E.02334 ; perimeter
G1 X84.413 Y142.176 E.01824 ; perimeter
G1 X84.246 Y142.392 E.01083 ; perimeter
G1 X84.167 Y142.733 E.01389 ; perimeter
G1 X84.183 Y143.518 E.03115 ; perimeter
G1 X84.274 Y143.949 E.01747 ; perimeter
G1 X84.429 Y144.277 E.01439 ; perimeter
G1 X84.723 Y144.809 E.02411 ; perimeter
G1 X85.302 Y145.646 E.04037 ; perimeter
G1 X85.987 Y146.501 E.04346 ; perimeter
G1 X86.727 Y147.326 E.04396 ; perimeter
G1 X87.571 Y148.175 E.04749 ; perimeter
G1 X88.417 Y148.945 E.04538 ; perimeter
G1 X89.453 Y149.769 E.05251 ; perimeter
G1 X90.103 Y150.227 E.03154 ; perimeter
G1 X90.57 Y150.497 E.0214 ; perimeter
G1 X91.051 Y150.748 E.02152 ; perimeter
G1 X91.855 Y151.084 E.03457 ; perimeter
G1 X92.766 Y151.287 E.03703 ; perimeter
G1 X94.233 Y151.385 E.05832 ; perimeter
G1 X96.365 Y151.4 E.08458 ; perimeter
G1 X98.168 Y151.377 E.07153 ; perimeter
G1 X98.815 Y151.312 E.0258 ; perimeter
G1 X99.318 Y151.172 E.02071 ; perimeter
G1 X99.618 Y150.999 E.01374 ; perimeter
G1 X99.835 Y151.093 E.00938 ; perimeter
G1 X100.005 Y151.131 E.00691 ; perimeter
G1 X100.575 Y151.182 E.0227 ; perimeter
G1 X101.104 Y151.166 E.02099 ; perimeter
G1 X102.453 Y150.928 E.05434 ; perimeter
G1 X103.502 Y150.689 E.04268 ; perimeter
G1 X104.164 Y150.498 E.02733 ; perimeter
G1 X105.329 Y150.097 E.04888 ; perimeter
G1 X106.093 Y149.745 E.03337 ; perimeter
G1 X106.756 Y149.346 E.0307 ; perimeter
G1 X107.196 Y148.987 E.02253 ; perimeter
G1 X107.499 Y148.614 E.01906 ; perimeter
G1 E-4 F3600 ; retract
G1 X107.499 Y148.614 F9000 ; move to first perimeter point
G1 X85.777 Y133.393 ; move to first perimeter point
G1 E4 F2400 ;  ; unretract
G1 F1200
G1 X85.494 Y133.745 E.01792 ; perimeter
G1 X84.834 Y134.645 E.04427 ; perimeter
G1 X84.307 Y135.444 E.03797 ; perimeter
G1 X83.644 Y136.585 E.05235 ; perimeter
;WIDTH:0.560134
G1 X83.555 Y136.712 E.00667 ; perimeter
;WIDTH:0.600269
G1 X83.465 Y136.838 E.00718 ; perimeter
;WIDTH:0.640404
G1 X83.376 Y136.965 E.0077 ; perimeter
;WIDTH:0.680539
G1 X83.287 Y137.091 E.00818 ; perimeter
G1 X83.125 Y137.403 E.01864 ; perimeter
;WIDTH:0.676458
G1 X82.913 Y137.9 E.02846 ; perimeter
;WIDTH:0.634123
G1 X82.85 Y138.087 E.0097 ; perimeter
;WIDTH:0.596082
G1 X82.787 Y138.273 E.00903 ; perimeter
;WIDTH:0.558041
G1 X82.723 Y138.46 E.00847 ; perimeter
;WIDTH:0.519999
G1 X82.483 Y139.066 E.02586 ; perimeter
G1 X82.311 Y139.655 E.02434 ; perimeter
G1 X82.236 Y140.187 E.02131 ; perimeter
;WIDTH:0.517341
G1 X82.158 Y139.76 E.01712 ; perimeter
;WIDTH:0.519999
G1 X81.936 Y139.38 E.01746 ; perimeter
G1 X81.634 Y139.12 E.01581 ; perimeter
G1 X81.185 Y138.923 E.01945 ; perimeter
G1 X80.523 Y138.819 E.02658 ; perimeter
G1 X80.126 Y138.826 E.01575 ; perimeter
G1 X81.152 Y138.284 E.04603 ; perimeter
G1 X81.583 Y138.025 E.01995 ; perimeter
G1 X81.986 Y137.71 E.02029 ; perimeter
;WIDTH:0.562888
G1 X82.096 Y137.621 E.00612 ; perimeter
;WIDTH:0.605776
G1 X82.206 Y137.531 E.00665 ; perimeter
;WIDTH:0.648664
G1 X82.316 Y137.441 E.00716 ; perimeter
;WIDTH:0.691552
G1 X82.426 Y137.351 E.00767 ; perimeter
G1 X82.701 Y136.846 E.03101 ; perimeter
;WIDTH:0.680539
G1 X82.718 Y136.713 E.00711 ; perimeter
;WIDTH:0.640404
G1 X82.735 Y136.581 E.00661 ; perimeter
;WIDTH:0.600269
G1 X82.753 Y136.449 E.00617 ; perimeter
;WIDTH:0.560134
G1 X82.77 Y136.317 E.00572 ; perimeter
;WIDTH:0.519999
G1 X82.82 Y135.819 E.01985 ; perimeter
G1 X82.808 Y135.297 E.02071 ; perimeter
G1 X82.664 Y133.957 E.05346 ; perimeter
G1 X82.548 Y133.403 E.02245 ; perimeter
G1 X82.624 Y133.459 E.00374 ; perimeter
G1 X83.072 Y133.67 E.01964 ; perimeter
G1 X83.68 Y133.801 E.02467 ; perimeter
G1 X84.49 Y133.798 E.03213 ; perimeter
G1 X84.989 Y133.701 E.02017 ; perimeter
G1 X85.707 Y133.42 E.03059 ; perimeter
G1 E-4 F3600 ; retract
G1 X85.707 Y133.42 F9000 ; move to first perimeter point
G1 X78.924 Y142.383 ; move to first perimeter point
G1 E4 F2400 ;  ; unretract
;TYPE:External perimeter
;WIDTH:0.536374
G1 F1200
G1 X79.167 Y142.26 E.01118 ; perimeter
;WIDTH:0.502698
G1 X79.41 Y142.137 E.01041 ; perimeter
;WIDTH:0.47102
G1 X79.457 Y142.115 E.00185 ; perimeter
G1 E-4 F3600 ; retract
G1 X79.457 Y142.115 F9000 ; move to first perimeter point
G1 X87.666 Y130.589 ; move to first perimeter point
G1 E4 F2400 ;  ; unretract
;TYPE:Perimeter
;WIDTH:0.550465
G1 F1200
G1 X87.732 Y130.782 E.00861 ; perimeter
G1 X88.058 Y131.544 E.03498 ; perimeter
G1 X87.633 Y131.754 E.02001 ; perimeter
G1 X87.168 Y132.038 E.02299 ; perimeter
G1 X87.414 Y131.572 E.02224 ; perimeter
G1 X87.62 Y130.906 E.02942 ; perimeter
G1 X87.655 Y130.663 E.01036 ; perimeter
G1 E-4 F3600 ; retract
G1 X87.655 Y130.663 F9000 ; move to first perimeter point
G1 X88.318 Y127.771 ; move to first perimeter point
G1 E4 F2400 ;  ; unretract
;WIDTH:0.618198
G1 F1200
G1 X87.845 Y128.43 E.0388 ; perimeter
G1 X87.624 Y128.88 E.02398 ; perimeter
G1 X87.427 Y128.222 E.03286 ; perimeter
G1 X87.222 Y127.758 E.02426 ; perimeter
G1 X87.682 Y127.828 E.02226 ; perimeter
G1 X88.244 Y127.778 E.02699 ; perimeter
G1 E-4 F3600 ; retract
G1 X88.244 Y127.778 F9000 ; move to first perimeter point
G1 X102.788 Y133.562 ; move to first perimeter point
G1 E4 F2400 ;  ; unretract
;WIDTH:0.519999
G1 F1200
G1 X102.597 Y133.517 E.00778 ; perimeter
G1 X102.347 Y133.307 E.01295 ; perimeter
G1 X101.826 Y132.506 E.03791 ; perimeter
G1 X101.16 Y131.246 E.05654 ; perimeter
G1 X100.536 Y129.996 E.05542 ; perimeter
G1 X97.768 Y129.598 E.11093 ; perimeter
G1 X97.27 Y129.445 E.02067 ; perimeter
G1 X97.103 Y129.365 E.00735 ; perimeter
G1 X96.725 Y128.956 E.02209 ; perimeter
G1 X96.572 Y128.624 E.0145 ; perimeter
G1 X96.572 Y128.377 E.0098 ; perimeter
G1 X96.709 Y127.957 E.01753 ; perimeter
G1 X96.809 Y127.769 E.00845 ; perimeter
G1 X97.107 Y127.374 E.01963 ; perimeter
G1 X98.041 Y126.356 E.05481 ; perimeter
G1 X98.988 Y125.386 E.05378 ; perimeter
G1 X98.317 Y121.526 E.15542 ; perimeter
G1 X98.315 Y121.293 E.00924 ; perimeter
G1 X98.443 Y120.983 E.0133 ; perimeter
G1 X98.617 Y120.813 E.00965 ; perimeter
G1 X98.951 Y120.691 E.01411 ; perimeter
G1 X99.609 Y120.774 E.02631 ; perimeter
G1 X100.223 Y121.006 E.02604 ; perimeter
G1 X101.509 Y121.626 E.05663 ; perimeter
G1 X102.903 Y122.339 E.06211 ; perimeter
