; generated by PrusaSlicer 2.7.0+MacOS-x64 on 2023-12-17 at 01:24:28 UTC

; 

; external perimeters extrusion width = 0.52mm
; perimeters extrusion width = 0.55mm
; infill extrusion width = 0.55mm
; solid infill extrusion width = 0.55mm
; top infill extrusion width = 0.50mm
; first layer extrusion width = 0.52mm

M201 X500 Y500 Z100 E5000 ; sets maximum accelerations, mm/sec^2
M203 X500 Y500 Z10 E60 ; sets maximum feedrates, mm / sec
M204 P500 R1000 T500 ; sets acceleration (P, T) and retract acceleration (R), mm/sec^2
M205 X8.00 Y8.00 Z0.40 E5.00 ; sets the jerk limits, mm/sec
M205 S0 T0 ; sets the minimum extruding and travel feed rate, mm/sec

; printing object Christmas_Card_Flatpack_-_Santas_Sleigh_Decoration_2020_version.stl id:2 copy 0
; stop printing object Christmas_Card_Flatpack_-_Santas_Sleigh_Decoration_2020_version.stl id:2 copy 0

;TYPE:Custom
G90 ; use absolute coordinates
M83 ; extruder relative mode
M104 S150 ; set temporary nozzle temp to prevent oozing during homing
M140 S50 ; set final bed temp
G4 S30 ; allow partial nozzle warmup
G28 ; home all axis
G29 ; mesh bed leveling
G1 Z50 F240
G1 X2.0 Y10 F3000
M104 S215 ; set final nozzle temp
M190 S50 ; wait for bed temp to stabilize
M109 S215 ; wait for nozzle temp to stabilize
G1 Z0.28 F240
G92 E0
G1 X2.0 Y140 E10 F1500 ; prime the nozzle
G1 X2.3 Y140 F5000
G92 E0
G1 X2.3 Y10 E10 F1200 ; prime the nozzle
G92 E0
G21 ; set units to millimeters
G90 ; use absolute coordinates
M83 ; use relative distances for extrusion
; Filament gcode
M900 K0.05 ; Filament gcode LA 1.5\nM900 K200 ; Filament gcode LA 1.0
M107 ; disable fan
;LAYER_CHANGE
;Z:0.2
;HEIGHT:0.2
;BEFORE_LAYER_CHANGE
G92 E0
;0.2


G1 Z.2 F9000 ; move to next layer (0)
;AFTER_LAYER_CHANGE
;0.2
G1 E-4 F3600 ; retract
G1 X65.388 Y48.171 F9000 ; move to print after unknown position
G1 Z.2 ; move to print after unknown position
G1 E4 F2400 ;  ; unretract
M204 P500 ; adjust acceleration
;TYPE:Skirt/Brim
;WIDTH:0.52
G1 F1200
G1 X65.923 Y47.443 E.03584 ; skirt
G1 X67.159 Y46.223 E.06889 ; skirt
G1 X68.244 Y45.408 E.05383 ; skirt
G1 X69.841 Y44.836 E.06729 ; skirt
G1 X72.013 Y44.678 E.08639 ; skirt
G1 X74.789 Y44.606 E.11016 ; skirt
G1 X94.089 Y44.524 E.76563 ; skirt
G1 X141.008 Y44.585 E1.86125 ; skirt
G1 X154.537 Y44.664 E.5367 ; skirt
G1 X160.211 Y44.824 E.22517 ; skirt
G1 X162.048 Y45.091 E.07364 ; skirt
G1 X162.908 Y45.415 E.03646 ; skirt
G1 X163.707 Y45.851 E.03611 ; skirt
G1 X164.83 Y46.837 E.05928 ; skirt
G1 X165.452 Y47.867 E.04773 ; skirt
G1 X165.81 Y48.955 E.04544 ; skirt
G1 X166.141 Y51.493 E.10153 ; skirt
G1 X166.322 Y55.978 E.17806 ; skirt
G1 X166.423 Y63.745 E.30814 ; skirt
G1 X166.477 Y180.857 E4.64576 ; skirt
G1 X166.214 Y182.185 E.0537 ; skirt
G1 X165.923 Y182.889 E.03022 ; skirt
G1 X165.167 Y184.02 E.05397 ; skirt
G1 X163.915 Y185.272 E.07024 ; skirt
G1 X162.499 Y186.13 E.06568 ; skirt
G1 X161.467 Y186.29 E.04143 ; skirt
G1 X80.3 Y186.465 E3.21985 ; skirt
G1 X70.609 Y186.32 E.38448 ; skirt
G1 X69.588 Y186.216 E.04071 ; skirt
G1 X68.387 Y185.856 E.04974 ; skirt
G1 X67.507 Y185.35 E.04027 ; skirt
G1 X66.749 Y184.747 E.03842 ; skirt
G1 X66.037 Y183.995 E.04108 ; skirt
G1 X65.226 Y182.685 E.06112 ; skirt
G1 X64.805 Y181.189 E.06165 ; skirt
G1 X64.639 Y179.285 E.07582 ; skirt
G1 X64.523 Y168.012 E.44722 ; skirt
G1 X64.611 Y119.675 E1.9175 ; skirt
G1 X64.907 Y49.883 E2.76863 ; skirt
G1 X65.309 Y48.277 E.06567 ; skirt
G1 X65.343 Y48.231 E.00227 ; skirt
; printing object Christmas_Card_Flatpack_-_Santas_Sleigh_Decoration_2020_version.stl id:2 copy 0
G1 E-4 F3600 ; retract
G1 X65.343 Y48.231 F9000 ; move to first perimeter point
G1 X85.777 Y133.393 ; move to first perimeter point
G1 E4 F2400 ;  ; unretract
;TYPE:Perimeter
;WIDTH:0.519999
G1 F1200
G1 X85.494 Y133.745 E.01792 ; perimeter
G1 X84.834 Y134.645 E.04427 ; perimeter
G1 X84.307 Y135.444 E.03797 ; perimeter
G1 X83.644 Y136.585 E.05235 ; perimeter
;WIDTH:0.560134
G1 X83.555 Y136.712 E.00667 ; perimeter
;WIDTH:0.600269
G1 X83.465 Y136.838 E.00718 ; perimeter
;WIDTH:0.640404
G1 X83.376 Y136.965 E.0077 ; perimeter
;WIDTH:0.680539
G1 X83.287 Y137.091 E.00818 ; perimeter
G1 X83.125 Y137.403 E.01864 ; perimeter
;WIDTH:0.676458
G1 X82.913 Y137.9 E.02846 ; perimeter
;WIDTH:0.634123
G1 X82.85 Y138.087 E.0097 ; perimeter
;WIDTH:0.596082
G1 X82.787 Y138.273 E.00903 ; perimeter
;WIDTH:0.558041
G1 X82.723 Y138.46 E.00847 ; perimeter
;WIDTH:0.519999
G1 X82.483 Y139.066 E.02586 ; perimeter
G1 X82.311 Y139.655 E.02434 ; perimeter
G1 X82.236 Y140.187 E.02131 ; perimeter
;WIDTH:0.517341
G1 X82.158 Y139.76 E.01712 ; perimeter
;WIDTH:0.519999
G1 X81.936 Y139.38 E.01746 ; perimeter
G1 X81.634 Y139.12 E.01581 ; perimeter
G1 X81.185 Y138.923 E.01945 ; perimeter
G1 X80.523 Y138.818 E.02659 ; perimeter
G1 X80.126 Y138.826 E.01575 ; perimeter
G1 X81.152 Y138.284 E.04603 ; perimeter
G1 X81.583 Y138.025 E.01995 ; perimeter
G1 X81.986 Y137.71 E.02029 ; perimeter
;WIDTH:0.562888
G1 X82.096 Y137.621 E.00612 ; perimeter
;WIDTH:0.605776
G1 X82.206 Y137.531 E.00665 ; perimeter
;WIDTH:0.648665
G1 X82.316 Y137.441 E.00716 ; perimeter
;WIDTH:0.691553
G1 X82.426 Y137.351 E.00767 ; perimeter
G1 X82.701 Y136.846 E.03101 ; perimeter
;WIDTH:0.680539
G1 X82.718 Y136.713 E.00711 ; perimeter
;WIDTH:0.640404
G1 X82.735 Y136.581 E.00661 ; perimeter
;WIDTH:0.600269
G1 X82.753 Y136.449 E.00617 ; perimeter
;WIDTH:0.560134
G1 X82.77 Y136.317 E.00572 ; perimeter
;WIDTH:0.519999
G1 X82.82 Y135.819 E.01985 ; perimeter
G1 X82.808 Y135.297 E.02071 ; perimeter
G1 X82.664 Y133.957 E.05346 ; perimeter
G1 X82.548 Y133.403 E.02245 ; perimeter
G1 X82.624 Y133.459 E.00374 ; perimeter
G1 X83.072 Y133.67 E.01964 ; perimeter
G1 X83.68 Y133.801 E.02467 ; perimeter
G1 X84.49 Y133.798 E.03213 ; perimeter
G1 X84.989 Y133.701 E.02017 ; perimeter
G1 X85.707 Y133.42 E.03059 ; perimeter
G1 E-4 F3600 ; retract
G1 X85.707 Y133.42 F9000 ; move to first perimeter point
G1 X78.924 Y142.383 ; move to first perimeter point
G1 E4 F2400 ;  ; unretract
;TYPE:External perimeter
;WIDTH:0.536374
G1 F1200
G1 X79.167 Y142.26 E.01118 ; perimeter
;WIDTH:0.502697
G1 X79.41 Y142.137 E.01041 ; perimeter
;WIDTH:0.471018
G1 X79.457 Y142.115 E.00185 ; perimeter
G1 E-4 F3600 ; retract
G1 X79.457 Y142.115 F9000 ; move to first perimeter point
G1 X88.058 Y131.544 ; move to first perimeter point
G1 E4 F2400 ;  ; unretract
;TYPE:Perimeter
;WIDTH:0.550465
G1 F1200
G1 X87.633 Y131.754 E.02001 ; perimeter
G1 X87.168 Y132.038 E.02299 ; perimeter
G1 X87.414 Y131.572 E.02224 ; perimeter
G1 X87.62 Y130.906 E.02942 ; perimeter
G1 X87.666 Y130.589 E.01352 ; perimeter
G1 X87.732 Y130.782 E.00861 ; perimeter
G1 X88.029 Y131.475 E.03182 ; perimeter
G1 E-4 F3600 ; retract
G1 X88.029 Y131.475 F9000 ; move to first perimeter point
G1 X87.624 Y128.88 ; move to first perimeter point
G1 E4 F2400 ;  ; unretract
;WIDTH:0.618198
G1 F1200
G1 X87.427 Y128.222 E.03286 ; perimeter
G1 X87.222 Y127.758 E.02426 ; perimeter
G1 X87.682 Y127.828 E.02226 ; perimeter
G1 X88.318 Y127.771 E.03054 ; perimeter
G1 X87.845 Y128.43 E.0388 ; perimeter
G1 X87.657 Y128.813 E.02041 ; perimeter
G1 E-4 F3600 ; retract
G1 X87.657 Y128.813 F9000 ; move to first perimeter point
G1 X98.871 Y120.721 ; move to first perimeter point
G1 E4 F2400 ;  ; unretract
;WIDTH:0.519999
G1 F1200
G1 X98.951 Y120.691 E.00339 ; perimeter
G1 X99.609 Y120.774 E.02631 ; perimeter
G1 X100.223 Y121.006 E.02604 ; perimeter
G1 X101.509 Y121.626 E.05663 ; perimeter
G1 X102.903 Y122.339 E.06211 ; perimeter
G1 X104.135 Y121.695 E.05515 ; perimeter
G1 X106.009 Y120.754 E.08319 ; perimeter
G1 X106.335 Y120.678 E.01328 ; perimeter
G1 X106.659 Y120.758 E.01324 ; perimeter
G1 X107.016 Y121.05 E.0183 ; perimeter
G1 X107.181 Y121.271 E.01094 ; perimeter
G1 X107.291 Y121.759 E.01984 ; perimeter
G1 X107.274 Y122.273 E.0204 ; perimeter
G1 X107.011 Y124.092 E.07291 ; perimeter
G1 X106.821 Y125.178 E.04374 ; perimeter
G1 X107.843 Y126.186 E.05694 ; perimeter
G1 X108.803 Y127.192 E.05516 ; perimeter
G1 X109.129 Y127.589 E.02038 ; perimeter
G1 X109.418 Y128.12 E.02398 ; perimeter
G1 X109.496 Y128.442 E.01314 ; perimeter
G1 X109.427 Y128.752 E.0126 ; perimeter
G1 X109.248 Y128.987 E.01172 ; perimeter
G1 X109.034 Y129.114 E.00987 ; perimeter
G1 X108.398 Y129.356 E.02699 ; perimeter
G1 X107.37 Y129.608 E.04199 ; perimeter
G1 X106.172 Y129.846 E.04845 ; perimeter
G1 X105.465 Y129.959 E.0284 ; perimeter
G1 X104.122 Y132.489 E.11363 ; perimeter
G1 X103.852 Y132.922 E.02024 ; perimeter
G1 X103.433 Y133.376 E.02451 ; perimeter
G1 X103.159 Y133.552 E.01292 ; perimeter
G1 X102.919 Y133.593 E.00966 ; perimeter
G1 X102.597 Y133.517 E.01312 ; perimeter
G1 X102.347 Y133.307 E.01295 ; perimeter
G1 X101.826 Y132.506 E.03791 ; perimeter
G1 X101.16 Y131.246 E.05654 ; perimeter
G1 X100.536 Y129.996 E.05542 ; perimeter
G1 X97.644 Y129.569 E.11597 ; perimeter
G1 X97.103 Y129.365 E.02294 ; perimeter
G1 X96.725 Y128.956 E.02209 ; perimeter
G1 X96.572 Y128.624 E.0145 ; perimeter
G1 X96.572 Y128.377 E.0098 ; perimeter
G1 X96.709 Y127.957 E.01753 ; perimeter
G1 X97.058 Y127.432 E.02501 ; perimeter
G1 X98.041 Y126.356 E.05781 ; perimeter
G1 X98.988 Y125.386 E.05378 ; perimeter
G1 X98.317 Y121.526 E.15542 ; perimeter
G1 X98.315 Y121.293 E.00924 ; perimeter
G1 X98.443 Y120.983 E.0133 ; perimeter
G1 X98.617 Y120.813 E.00965 ; perimeter
G1 X98.8 Y120.746 E.00773 ; perimeter
G1 X98.98 Y121.168 F9000 ; move to first perimeter point
;TYPE:External perimeter
G1 F1200
G1 X99.533 Y121.245 E.02215 ; perimeter
G1 X100.003 Y121.429 E.02002 ; perimeter
G1 X101.302 Y122.055 E.0572 ; perimeter
G1 X102.905 Y122.876 E.07144 ; perimeter
G1 X104.359 Y122.116 E.06508 ; perimeter
G1 X106.223 Y121.18 E.08274 ; perimeter
G1 X106.388 Y121.162 E.00658 ; perimeter
G1 X106.696 Y121.403 E.01551 ; perimeter
G1 X106.771 Y121.535 E.00602 ; perimeter
G1 X106.814 Y121.792 E.01034 ; perimeter
G1 X106.795 Y122.283 E.01949 ; perimeter
G1 X106.539 Y124.023 E.06977 ; perimeter
G1 X106.308 Y125.342 E.05312 ; perimeter
G1 X107.497 Y126.515 E.06626 ; perimeter
G1 X108.458 Y127.522 E.05522 ; perimeter
G1 X108.787 Y127.933 E.02088 ; perimeter
G1 X109.015 Y128.403 E.02072 ; perimeter
G1 X108.996 Y128.547 E.00576 ; perimeter
G1 X108.865 Y128.668 E.00707 ; perimeter
G1 X108.229 Y128.91 E.02699 ; perimeter
G1 X107.259 Y129.144 E.03958 ; perimeter
G1 X106.079 Y129.378 E.04772 ; perimeter
G1 X105.17 Y129.523 E.03652 ; perimeter
G1 X104.709 Y130.355 E.03773 ; perimeter
G1 X103.7 Y132.267 E.08576 ; perimeter
G1 X103.418 Y132.706 E.0207 ; perimeter
G1 X103.05 Y133.077 E.02073 ; perimeter
G1 X102.878 Y133.113 E.00697 ; perimeter
G1 X102.722 Y133.011 E.00739 ; perimeter
G1 X102.227 Y132.247 E.03611 ; perimeter
G1 X101.58 Y131.019 E.05506 ; perimeter
G1 X100.851 Y129.559 E.06474 ; perimeter
G1 X97.795 Y129.116 E.1225 ; perimeter
G1 X97.365 Y128.965 E.01808 ; perimeter
G1 X97.054 Y128.585 E.01948 ; perimeter
G1 X97.052 Y128.422 E.00647 ; perimeter
G1 X97.193 Y128.053 E.01567 ; perimeter
G1 X97.458 Y127.697 E.01761 ; perimeter
G1 X98.392 Y126.679 E.05481 ; perimeter
G1 X99.499 Y125.545 E.06287 ; perimeter
G1 X98.787 Y121.444 E.16512 ; perimeter
G1 X98.829 Y121.263 E.00737 ; perimeter
G1 X98.917 Y121.208 E.00412 ; perimeter
G1 X99.416 Y121.234 F9000 ; move inwards before travel
G1 E-4 F3600 ; retract
G1 X93.735 Y115.366 F9000 ; move to first perimeter point
G1 E4 F2400 ;  ; unretract
;TYPE:Perimeter
G1 F1200
G1 X111.83 Y115.373 E.71782 ; perimeter
G1 X111.876 Y118.423 E.12101 ; perimeter
G1 X111.9 Y118.886 E.01839 ; perimeter
G1 X111.988 Y119.098 E.00911 ; perimeter
G1 X112.249 Y119.347 E.01431 ; perimeter
G1 X112.566 Y119.436 E.01306 ; perimeter
G1 X113.841 Y119.479 E.05061 ; perimeter
G1 X113.841 Y120.952 E.05843 ; perimeter
G1 X112.546 Y120.952 E.05137 ; perimeter
G1 X112.214 Y121.027 E.0135 ; perimeter
G1 X112.03 Y121.159 E.00898 ; perimeter
G1 X111.862 Y121.419 E.01228 ; perimeter
G1 X111.818 Y121.671 E.01015 ; perimeter
G1 X111.884 Y134.063 E.49159 ; perimeter
G1 X112 Y134.369 E.01298 ; perimeter
G1 X112.268 Y134.607 E.01422 ; perimeter
G1 X112.566 Y134.685 E.01222 ; perimeter
G1 X113.841 Y134.728 E.05061 ; perimeter
G1 X113.841 Y136.201 E.05843 ; perimeter
G1 X112.544 Y136.201 E.05145 ; perimeter
G1 X112.236 Y136.267 E.0125 ; perimeter
G1 X112.052 Y136.389 E.00876 ; perimeter
G1 X111.883 Y136.624 E.01148 ; perimeter
G1 X111.821 Y136.916 E.01184 ; perimeter
G1 X111.821 Y139.067 E.08533 ; perimeter
G1 X101.471 Y139.069 E.41058 ; perimeter
G1 X100.318 Y139.167 E.0459 ; perimeter
G1 X99.673 Y139.368 E.0268 ; perimeter
G1 X99.597 Y139.509 E.00635 ; perimeter
G1 X99.52 Y139.368 E.00637 ; perimeter
G1 X99.344 Y139.295 E.00756 ; perimeter
G1 X98.757 Y139.138 E.0241 ; perimeter
G1 X98.206 Y139.078 E.02199 ; perimeter
G1 X93.944 Y139.068 E.16907 ; perimeter
G1 X93.944 Y136.916 E.08537 ; perimeter
G1 X93.903 Y136.677 E.00962 ; perimeter
G1 X93.813 Y136.503 E.00777 ; perimeter
G1 X93.534 Y136.269 E.01445 ; perimeter
G1 X93.229 Y136.201 E.0124 ; perimeter
G1 X92.037 Y136.201 E.04729 ; perimeter
G1 X92.037 Y134.75 E.05756 ; perimeter
G1 X93.229 Y134.75 E.04729 ; perimeter
G1 X93.534 Y134.682 E.0124 ; perimeter
G1 X93.719 Y134.555 E.0089 ; perimeter
G1 X93.887 Y134.314 E.01165 ; perimeter
G1 X93.944 Y134.034 E.01134 ; perimeter
G1 X93.944 Y121.903 E.48123 ; perimeter
G1 X93.923 Y121.493 E.01629 ; perimeter
G1 X93.821 Y121.266 E.00987 ; perimeter
G1 X93.545 Y121.025 E.01454 ; perimeter
G1 X93.229 Y120.952 E.01287 ; perimeter
G1 X91.924 Y120.952 E.05177 ; perimeter
G1 X91.924 Y119.501 E.05756 ; perimeter
G1 X93.229 Y119.501 E.05177 ; perimeter
G1 X93.545 Y119.427 E.01287 ; perimeter
G1 X93.731 Y119.295 E.00905 ; perimeter
G1 X93.867 Y119.11 E.00911 ; perimeter
G1 X93.945 Y118.781 E.01341 ; perimeter
G1 X93.928 Y116.767 E.0799 ; perimeter
G1 X93.845 Y116.216 E.0221 ; perimeter
G1 X93.629 Y115.623 E.02504 ; perimeter
G1 X93.706 Y115.436 E.00802 ; perimeter
G1 E-4 F3600 ; retract
G1 X93.706 Y115.436 F9000 ; move to first perimeter point
G1 X103.388 Y96.564 ; move to first perimeter point
G1 E4 F2400 ;  ; unretract
G1 F1200
G1 X103.574 Y96.508 E.00771 ; perimeter
G1 X104.066 Y96.505 E.01952 ; perimeter
G1 X104.672 Y96.616 E.02444 ; perimeter
G1 X106.022 Y97.033 E.05605 ; perimeter
G1 X107.65 Y97.673 E.06939 ; perimeter
G1 X108.11 Y97.912 E.02056 ; perimeter
G1 X108.362 Y98.07 E.0118 ; perimeter
G1 X108.698 Y98.379 E.01811 ; perimeter
G1 X108.797 Y98.519 E.0068 ; perimeter
G1 X108.88 Y98.782 E.01094 ; perimeter
G1 X108.905 Y99.215 E.01721 ; perimeter
G1 X108.822 Y99.618 E.01632 ; perimeter
G1 X108.627 Y100.077 E.01978 ; perimeter
G1 X108.362 Y100.411 E.01691 ; perimeter
G1 X108.127 Y100.586 E.01162 ; perimeter
G1 X107.635 Y100.758 E.02068 ; perimeter
G1 X107.193 Y100.767 E.01754 ; perimeter
G1 X106.74 Y100.687 E.01825 ; perimeter
G1 X105.694 Y100.365 E.04342 ; perimeter
G1 X103.919 Y99.706 E.07511 ; perimeter
G1 X103.438 Y99.468 E.02129 ; perimeter
G1 X103.066 Y99.185 E.01854 ; perimeter
G1 X102.759 Y98.831 E.01859 ; perimeter
G1 X102.541 Y98.393 E.01941 ; perimeter
G1 X102.458 Y97.922 E.01897 ; perimeter
G1 X102.494 Y97.604 E.0127 ; perimeter
G1 X102.58 Y97.339 E.01105 ; perimeter
G1 X102.833 Y96.939 E.01878 ; perimeter
G1 X103.233 Y96.611 E.02052 ; perimeter
G1 X103.316 Y96.586 E.00344 ; perimeter
G1 X103.532 Y96.995 F9000 ; move to first perimeter point
;TYPE:External perimeter
G1 F1200
G1 X103.98 Y96.974 E.01779 ; perimeter
G1 X104.586 Y97.085 E.02444 ; perimeter
G1 X105.88 Y97.488 E.05376 ; perimeter
G1 X107.471 Y98.115 E.06784 ; perimeter
G1 X107.993 Y98.39 E.02341 ; perimeter
G1 X108.378 Y98.747 E.02083 ; perimeter
G1 X108.433 Y99.146 E.01598 ; perimeter
G1 X108.383 Y99.432 E.01152 ; perimeter
G1 X108.167 Y99.911 E.02084 ; perimeter
G1 X107.926 Y100.153 E.01355 ; perimeter
G1 X107.608 Y100.282 E.01361 ; perimeter
G1 X107.269 Y100.296 E.01346 ; perimeter
G1 X106.88 Y100.231 E.01565 ; perimeter
G1 X105.834 Y99.909 E.04342 ; perimeter
G1 X104.085 Y99.259 E.07402 ; perimeter
G1 X103.715 Y99.079 E.01632 ; perimeter
G1 X103.413 Y98.858 E.01485 ; perimeter
G1 X103.172 Y98.593 E.01421 ; perimeter
